X:1
T:# / 2 senfl: im meyen hoert man die hanen kreen
%%score 1 2 3 4
L:1/8
Q:1/4=200
M:4/2
K:F
V:1 treble nm="Midi_69"
V:2 treble nm="Midi_75"
V:3 treble-8 nm="Midi_75"
V:4 bass nm="Midi_71"
V:1
 z8"^Im Meyen hört man die Hanen kreen." z4 G4 | G8"^Ludwig Senfl\n(ca 1490 - 1545)" G4 G4 | %2
w: Im|mey- en, im|
w: Es|sein- de zwölf|
 A8 G4 B4 | B4 B4 B4 (A2 G2) | F8 G4 G4 | G4 G4 B4 c4 | d4 d4 c4 B4 | B4 B4 B4 (A2 G2) | F8 G4 G4 | %9
w: mey- en hört|man die ha- nen *|kre- en, freu|dich du schöns brauns|me- get- lein, hilf|mir den ha- bern *|sä- en, bist|
w: mo- nat im|gan- zen lan- gen *|ja- re, das|sa- gen uns die|wei- sen ganz und|gar für wa- * *|* re, ein|
 F4 G4 A4 G4 | G4 F4 G4 G4 | F4 G4 A4 G4 | G4 F4 G8 :| d8 e4 e4 | f4 d6 c2 B4 | A4 d8 c4 | %16
w: mir vil lie- ber,|dann der knecht, ich|thu dir dei- ne|al- te recht.|Bum megd- lein|bum, bum, * *|* bum, ich|
w: je- des hat sein|eig- ne art, ei-|ner der zert, der|an- der spart.||||
 f4 f4 e4 e4 | d4 d4 A8 | f4 f4 e4 e4 | d4 d4 A8 | z4 D4 E4 F4 | G4 c4 B4 A4 | B4 A4 B4 B4 | %23
w: freu mich dein ganz|um und um,|wo ich freund- lich|zu dir kum|freu dich, freu|dich, freu dich, du|schöns brauns me- get-|
w: |||||||
 A4 G4 G4 F4 | G4 E4 F4 F4 | G4 E4 F4 F4 | G4 B4 c4 c4 | B4 B4 c4 c4 | B16 |] %29
w: lein, ich kum, ich|kum, ich kum, ich|kum, ich kum, ich|kum, ich kum, ich|kum, ich kum, ich|kum.|
w: ||||||
V:2
 z8 z4 D4 | D8 B,4 B,4 | C8 C4 B,4 | G,4 G4 G4 E4 | D8 D4 E4 | D4 D4 G4 G4 | A4 A4 A4 F4 | %7
w: Im|mey- en, im|mey- en hört|man die ha- nen|kre- en, freu|dich du schöns brauns|me- get- lein, hilf|
w: Es|sein- de zwölf|mo- nat im|gan- zen lan- gen|ja- re, das|sa- gen uns die|wei- sen ganz und|
 G4 G4 G4 E4 | D4 D4 z4 C4 | D4 E4 F4 E4 | D4 D4 D4 C4 | D4 E4 F4 C4 | D4 D4 D8 :| z4 D4 G,4 G,4 | %14
w: mir den ha- bern|sä- en, bist|mir vil lie- ber,|dann der knecht, ich|thu dir dei- ne|al- te recht.|Bum megd- lein|
w: gar für wa- *|* re, ein|je- des hat sein|eig- ne art, ei-|ner der zert, der|an- der spart.||
 A,4 A,4 G,2 A,2 B,2 C2 | D4 D4 A,8 | A8 A4 A4 | A8 z8 | A8 A8 | z4 (A,6 B,2) C4 | A,4 B,4 C4 D4 | %21
w: bum, ich freu * * *|* mich dein|ganz um und|um,|wo ich|freund- * lich|zu dir kum, *|
w: |||||||
 z4 A4 G4 F4 | G4 F4 G4 G4 | E4 E4 D4 D4 | C4 C4 D4 D4 | C4 C4 D8 | z4 D4 E4 E4 | D4 D4 E4 E4 | %28
w: freu dich, du|schöns brauns me- get-|lein, ich kum, ich|kum, ich kum, ich|kum, ich kum,|ich kum, ich|kum, ich kum, ich|
w: |||||||
 D16 |] %29
w: kum.|
w: |
V:3
 z8 z4 G4 | G8 d4 e4 | f8 e4 d4 | g4 d4 d4 c2 B2 | A8 G4 G4 | G4 G4 d4 e4 | f4 f4 e4 d4 | %7
w: Im|mey- en, im|mey- en hört|man die ha- nen *|kre- en, freu|dich du schöns brauns|me- get- lein, hilf|
w: Es|sein- de zwölf|mo- nat im|gan- zen lan- gen *|ja- re, das|sa- gen uns die|wei- sen ganz und|
 g4 d4 d4 (c2 B2) | A8 G4 G4 | A4 B4 c4 c4 | B4 A4 G4 G4 | A4 B4 c4 c4 | B4 A4 G8 :| B8 c4 c4 | %14
w: mir den ha- bern *|sä- en, bist|mir vil lie- ber,|dann der knecht, ich|thu dir dei- ne|al- te recht.|Bum megd- lein|
w: gar für wa- * *|* re, ein|je- des hat sein|eig- ne art, ei-|ner der zert, der|an- der spart.||
 d8 z4 d4 | f4 f4 e4 e4 | d4 d4 A8 | f4 f4 e4 e4 | d4 d4 A8 | f4 f4 e4 e2 e2 | d4 d4 A4 A4 | %21
w: bum, ich|freu mich dein ganz|um und um,|wo ich freund- lich|zu dir kum,|hin- derm o- fen und|um und um, freu|
w: |||||||
 G4 A4 B4 c4 | d6 d2 d4 d4 | c4 c4 A4 A4 | G4 G4 A4 A4 | G4 G4 A4 A4 | G16- | G16 | G16 |] %29
w: dich, du schöns brauns|me- get- lein, ich|kum, ich kum, ich|kum, ich kum, ich|kum, ich kum, ich|kum.|||
w: ||||||||
V:4
 z8 z4 G,4 | G,8 G,4 G,4 | F,8 C,4 G,4 | G,4 G,4 G,4 C,4 | D,8 G,4 C,4 | G,4 G,4 G,4 E,4 | %6
w: Im|mey- en, im|mey- en hört|man die ha- nen|kre- en, freu|dich du schöns brauns|
w: Es|sein- de zwölf|mo- nat im|gan- zen lan- gen|ja- re, das|sa- gen uns die|
 D,4 D,4 A,4 B,4 | G,4 G,4 G,4 C,4 | D,4 D,4 z4 E,4 | D,4 G,4 F,4 C,4 | G,4 D,4 E,4 E,4 | %11
w: me- get- lein, hilf|mir den ha- bern|sä- en, bist|mir vil lie- ber,|dann der knecht, ich|
w: wei- sen ganz und|gar für wa- *|* re, ein|je- des hat sein|eig- ne art, ei-|
 D,4 G,4 F,4 E,4 | D,4 D,4 G,,8 :| G,8 E,4 E,4 | D,8 z4 G,4 | D,2 E,2 F,2 G,2 A,4 A,4 | %16
w: thu dir dei- ne|al- te recht.|Bum megd- lein|bum, ich|freu * * * * mich|
w: ner der zert, der|an- der spart.||||
 D,4 D4 D4 C4 | D4 D,4 D,4 C,4 | D,4 D4 D4 C4 | D4 D,4 D,4 C,4 | D,8 z4 D,4 | E,4 F,4 G,4 A,4 | %22
w: dein ganz um und|um, ganz um und|um, wo ich *|freund- lich zu dir|kum, freu|dich, du schöns brauns|
w: ||||||
 G,4 D,4 G,4 G,4 | C,4 C,4 D,4 D,4 | E,4 E,4 D,4 D,4 | E,4 E,4 D,8 | z4 G,4 C,4 C,4 | %27
w: me- get- lein, ich|kum, ich kum, ich|kum, ich kum, ich|kum, ich kum,|ich kum, ich|
w: |||||
 G,4 G,4 C,4 C,4 | G,16 |] %29
w: kum, ich kum, ich|kum.|
w: ||

